X:74
T:Earl Aboyne or Peggy Irvine
Z:Jack Campin - http://www.campin.me.uk
S:Blaikie MS (NLS MS.1578) p22, Blaikie #68
M:2/4
L:1/8
V:1 midi program 1 74
V:2 midi program 1 46 bass middle = d transpose -24
Q:1/4=90
K:Eb
[V:1] E|GB`B>A  |GB/B/    BB|c>d```ee   |GB zB|
[V:2] z|E2 e2   |E2       eg|a2    g2   |e2 E2|
%
[V:1]   ee AA/c/|B/G/B/G/ EF|AA/c/ BB/G/|F2 E|]
[V:2]   e2 E2   |e2       EB|cA````GE   |B2 e|]
W:Transcription (c) Jack Campin 2009, no mirroring or republication without permission

